!!!SOCIAL_FUNCTION:	songs of games played in a ceremonial manner
!!!PDT:	1932
!!!OTL: No_13_Dancing_Song_from_the_East_God_(a).krn
!!!REG: Wisconsin
!!!LANG: Non-Tone
!!!LING_GROUP: Algonquin
**kern
*staff1
=1-
*clefF4
*k[f#]
*M2/4
8E\L
8E\J
8E\L
8A\J
=2
2A\
=3!|:
*M3/4
16A\LL
16A\
16A\
16A\JJ
8A\L
8G\J
8E\
8r
=4||
*M2/4
8A\L
8G\J
8G\L
8E\J
=5
2D\
=6||
*M3/4
16E\LL
16D\
16D\
16D\JJ
8D\L
8D\J
8D\
8r
=7||
*M2/4
8E\L
8E\J
8E\L
8G\J
=8
2G\
=9||
*M3/4
16G\LL
16G\
16G\
16G\JJ
8G\L
8G\J
8E\
8r
=10||
*M2/4
8A\L
8G\J
8G\L
8E\J
=11
2D\
=12||
*M3/4
16E\LL
16D\
16D\
16D\JJ
8D/L
8BB/J
8GG/
8r
=13||
*M2/4
8BB/L
8BB/J
8BB/L
8AA/J
=14
2GG/
=15||
*M3/4
16GG/LL
16GG/
16GG/
16GG/JJ
8GG/L
8GG/J
4GG/
=16||
*M2/4
8D\L
8D\J
8E\L
8A\J
=17
2A\
==:|!
*-
